X:13554
T:Presbyterian Hornpipe
B:Walsh
M:6/4
L:1/8
N:
K:Gm
G2 B2 B2 G2 cBAG| ^F2 A2 A2 ^F2 A4| G2 B2 ABcA Bc d2| D2 G2 G2 B2 A2 G2::\
g2 b2 b2 g2 b2 ag| f2 a2 a2 f2 a2 gf| e2 f2 g2 f2 g2 a2| f6 e2 d2 c2|\
B2 d2 f2 B2 d2 f2 |A2 c2 f2 A2 c2 f2|G2 B2 d2 G2 B2 d2|^F6 E2 D2 C2|\
B,2 D2 D2 B,2 D2 CB, |A,2 C2 C2 A,2 C2 B,A,| G,2 B,2 A,2 C2 B,2 D2|\
C2 G2 D2 ^F2 G4:|


